packages/icons/svg/Instruction_Service_PurchaseHelp_Car--OpenBoot_32px.svg

<svg xmlns="http://www.w3.org/2000/svg" viewBox="0 0 32 32"><path d="M27.36 12.87L23 12.06l-2.79-2.34A3 3 0 0018.26 9h-5.19a3 3 0 00-1.59.46l-.37.23-4.4-4.4a1 1 0 00-1.42 0l-1 1a1 1 0 001.42 1.42l.29-.3 3.37 3.37-.82.51a2.86 2.86 0 01-.94.38l-3 .68A2 2 0 003 14.3v2.31a2 2 0 001.78 2l2.22.24a3 3 0 006 .15h6.6a3 3 0 005.9 0H27a2 2 0 002-2v-2.17a2 2 0 00-1.64-1.96zM10 19.5a1 1 0 111-1 1 1 0 01-1 1zm12.5 0a1 1 0 111-1 1 1 0 01-1 1zM27 17h-1.92a3 3 0 00-5.16 0h-7.34a3 3 0 00-5.1-.12L5 16.61V14.3l3-.68A4.69 4.69 0 009.61 13l2.93-1.83a1 1 0 01.53-.15h5.19a1 1 0 01.65.24l3.14 2.7 4.95.89zM28 23H4a1 1 0 000 2h24a1 1 0 000-2z"/></svg>

<svg xmlns="http://www.w3.org/2000/svg" viewBox="0 0 32 32"><defs></defs><g id="Icon"><path  d="M27.36,12.87,23,12.06,20.21,9.72A3,3,0,0,0,18.26,9H13.07a3,3,0,0,0-1.59.46l-.37.23-4.4-4.4a1,1,0,0,0-1.42,0l-1,1A1,1,0,0,0,5.71,7.71L6,7.41l3.37,3.37-.82.51a2.86,2.86,0,0,1-.94.38l-3,.68A2,2,0,0,0,3,14.3v2.31a2,2,0,0,0,1.78,2L7,18.85A3,3,0,0,0,13,19h6.6a3,3,0,0,0,5.9,0H27a2,2,0,0,0,2-2V14.83A2,2,0,0,0,27.36,12.87ZM10,19.5a1,1,0,1,1,1-1A1,1,0,0,1,10,19.5Zm12.5,0a1,1,0,1,1,1-1A1,1,0,0,1,22.5,19.5ZM27,17H25.08a3,3,0,0,0-5.16,0H12.58a3,3,0,0,0-5.1-.12L5,16.61V14.3l3-.68A4.69,4.69,0,0,0,9.61,13l2.93-1.83a1,1,0,0,1,.53-.15h5.19a1,1,0,0,1,.65.24l3.14,2.7,4.95.89Z"/><path  d="M28,23H4a1,1,0,0,0,0,2H28a1,1,0,0,0,0-2Z"/></g></svg>
